svgs/thin/person-hiking.svg

<svg xmlns="http://www.w3.org/2000/svg" viewBox="0 0 384 512"><!--! Font Awesome Pro 6.3.0 by @fontawesome - https://fontawesome.com License - https://fontawesome.com/license (Commercial License) Copyright 2023 Fonticons, Inc. --><path d="M240 112c30.88 0 56-25.12 56-56S270.9 0 240 0S184 25.12 184 56S209.1 112 240 112zM240 16c22.06 0 40 17.94 40 40S262.1 96 240 96S200 78.06 200 56S217.9 16 240 16zM360 187.4V136C360 131.6 356.4 128 352 128s-8 3.594-8 8v48h-43.19l-42.61-36.94c-13.19-13.16-30.48-19.75-49.36-19C180.6 129.5 155.7 151.3 148.3 181L123.1 281.8C119.9 294.1 123.8 309.1 133.5 318.6L216 400.2V473C216 494.1 234.8 512 257 512c21.5 0 39-17.5 39-39v-76.16c0-18.44-7.469-36.47-20.69-49.69L230.4 305c1.891-7.219 6.047-23.47 15.59-61.16l11.73 10.28C264.1 260.5 274.3 264 284 264H344v240c0 4.406 3.579 8 8.001 8S360 508.4 360 504V260.6C374.1 254.4 384 240.4 384 224S374.1 193.6 360 187.4zM344 248h-59.98c-5.812 0-11.42-2.094-15.8-5.938l-21.55-18.84c-2.109-1.812-5-2.469-7.641-1.594c-2.656 .8125-4.703 2.969-5.375 5.656c0 0-18.89 74.53-19.39 76.75c-1.578 3.156-.8906 6.969 1.688 9.406l48.23 45.22C274.2 368.7 280 382.6 280 396.8V473c0 12.69-10.31 23-23 23c-13.08 0-25-10.97-25-23v-76.16c0-2.125-.8594-4.188-2.375-5.688L144.7 307.2C139 301.6 136.8 293.4 138.7 285.7l25.14-100.8c5.734-22.97 24.58-39.75 45.83-40.81C210.5 144 211.3 144 212.2 144c13.11 0 25.38 5.062 35.09 14.75l45.28 39.28C294 199.3 295.9 200 297.8 200H344c13.23 0 24 10.78 24 24S357.2 248 344 248zM94.82 276.2l40.67-158.8C137.7 109 132.4 100.4 123.8 98.4C117.1 96.78 110.5 96 103.9 96c-36.25 0-69.23 23.8-78.44 59.41L.5119 253.3C-1.713 261.6 3.701 270.3 12.35 272.3l62.82 15.26C76.49 287.8 77.82 288 79.13 288C86.36 288 92.94 283.3 94.82 276.2zM78.93 271.1L16.01 257.3l24.96-97.88C48.19 131.5 74.08 112 103.9 112c5.371 0 10.76 .6523 16.07 1.391L78.93 271.1zM173.7 398.9c-4.355-4.312-11.91-2.402-13.39 3.543l-19.02 76.11c-3.047 12.22-16.36 19.94-27.84 16.72c-5.984-1.5-11.02-5.219-14.19-10.53c-3.125-5.219-4.016-11.38-2.5-17.31l27.89-111.8c.6562-2.625-.1416-5.471-2.011-7.432c-.0527-.0547 .0547 .0547 0 0c-4.299-4.512-11.98-2.607-13.49 3.439l-27.9 111.9c-2.562 10.06-1.047 20.5 4.281 29.44c5.375 8.969 13.91 15.31 23.81 17.75C112.3 511.6 115.5 512 118.1 512c17.91 0 33.44-12.16 37.8-29.56l18.99-75.99C176.5 403.7 175.7 400.9 173.7 398.9z"/></svg>

<svg xmlns="http://www.w3.org/2000/svg" viewBox="0 0 384 512"><!-- Font Awesome Pro 6.0.0-alpha2 by @fontawesome - https://fontawesome.com License - https://fontawesome.com/license (Commercial License) --><path d="M239.999 112C270.874 112 295.999 86.875 295.999 56S270.874 0 239.999 0S183.999 25.125 183.999 56S209.124 112 239.999 112ZM239.999 16C262.061 16 279.999 33.938 279.999 56S262.061 96 239.999 96S199.999 78.062 199.999 56S217.936 16 239.999 16ZM359.999 187.445V136C359.999 131.594 356.421 128 351.999 128S343.999 131.594 343.999 136V184H300.811L258.202 147.062C245.015 133.906 227.718 127.312 208.843 128.062C180.608 129.5 155.702 151.281 148.28 181L123.14 281.812C119.858 294.969 123.811 309.062 133.452 318.594L215.999 400.188V473C215.999 494.125 234.78 512 256.999 512C278.499 512 295.999 494.5 295.999 473V396.844C295.999 378.406 288.53 360.375 275.311 347.156L230.358 305C232.249 297.781 236.405 281.531 245.952 243.844L257.686 254.125C264.983 260.5 274.327 264 284.015 264H343.999V504C343.999 508.406 347.577 512 351.999 512S359.999 508.406 359.999 504V260.555C374.087 254.359 383.999 240.355 383.999 224S374.087 193.641 359.999 187.445ZM343.999 248H284.015C278.202 248 272.593 245.906 268.218 242.062L246.671 223.219C244.561 221.406 241.671 220.75 239.03 221.625C236.374 222.437 234.327 224.594 233.655 227.281C233.655 227.281 214.765 301.812 214.265 304.031C212.686 307.187 213.374 311 215.952 313.437L264.186 358.656C274.233 368.719 279.999 382.625 279.999 396.844V473C279.999 485.688 269.686 496 256.999 496C243.921 496 231.999 485.031 231.999 473V396.844C231.999 394.719 231.14 392.656 229.624 391.156L144.702 307.219C139.046 301.625 136.749 293.375 138.671 285.688L163.811 184.875C169.546 161.906 188.39 145.125 209.64 144.063C210.499 144 211.343 144 212.202 144C225.311 144 237.577 149.062 247.296 158.75L292.577 198.031C294.046 199.312 295.905 200 297.827 200H343.999C357.233 200 367.999 210.781 367.999 224S357.233 248 343.999 248ZM94.823 276.168L135.493 117.359C137.718 109 132.401 100.395 123.749 98.398C117.116 96.777 110.462 96 103.919 96C67.673 96 34.69 119.797 25.475 155.41L0.507 253.34C-1.718 261.695 3.597 270.305 12.249 272.301L75.169 287.52C76.493 287.844 77.821 288 79.128 288C86.356 288 92.94 283.25 94.823 276.168ZM78.931 271.969L16.011 257.293L40.966 159.418C48.19 131.5 74.077 112 103.919 112C109.29 112 114.683 112.652 119.993 113.391L78.931 271.969ZM173.511 398.75C169.155 394.438 161.768 396.508 160.282 402.453L141.263 478.563C138.216 490.781 124.903 498.5 113.419 495.281C107.434 493.781 102.403 490.063 99.231 484.75C96.106 479.531 95.216 473.375 96.731 467.438L124.618 355.672C125.274 353.047 124.558 350.285 122.688 348.324C122.636 348.27 122.581 348.211 122.526 348.156C118.227 343.645 110.628 345.633 109.12 351.68L81.216 463.531C78.653 473.594 80.169 484.031 85.497 492.969C90.872 501.937 99.403 508.281 109.309 510.719C112.341 511.594 115.497 512 118.997 512C136.903 512 152.434 499.844 156.794 482.438L175.784 406.445C176.462 403.738 175.659 400.875 173.675 398.91L173.511 398.75Z"/></svg>
